X: 635
T: El Zanneder Ben Deliyem
C: Mahmut Güzelgöz
O: Turkey
F: http://compmusic.upf.edu/node/140
N: hicaz--turku--aksak--el_zanneder--urfa
N: makam= hicaz
N: form= turku
N: usul= aksak = 9/8
M: 9/8
L: 1/16
K: C _7/8B ^f ^c 
Q: 1/4=228
%%MIDI tuningsystem comma53
z4 ^3/4c2d2 e4 e2d2 g2 | g2 =f2e2 d2^3/4c2 B2c2 B2A2  | \
w:   |   | 
e2d2 d2^3/4c2 c2B2 c2B2 A2 | 
w:   | 
A6 d2^3/4c2 d2e=f edcd  | e4 ^3/4c2d2 e4 e2d2 g2 | \
w:   |   | 
g2 =f2e2 d2^3/4c2 B2c2 B2A2  | 
w:   | 
e2d2 d2^3/4c2 c2B2 c2B2 A2 | A6 d2de ^3/4ced6  | \
w:   |   | 
d4 ^3/4c2cd d8-d2 | 
w:  *  El  zan ne  | 
d2 ^3/4c2d2 e2d2 c2d6  | e4 =f4 e2d2 ^3/4c4 B2 | \
w:  der   |  ben  de li  | 
^3/4c2 B2c2 d2(3c2B2A2{B}A4cd  | 
w:  yem  *  a man_ a *  *  *  man    | 
d4 ^3/4c2cd d8-d2 | d2 ^3/4c2d2 e2d2 c2d6  | \
w:  *  El  zan ne  |  der   | 
e4 =f4 e2d2 ^3/4c4 B2 | ^3/4c2 B2c2 d2(3c2B2A2{B}A4cd  | 
w:  ben  de li  |  yem  *  a man_ a *  *  *  man    | 
e=fed ^3/4c2d2 e4 e2d2 g2 | g2 =f2e2 d2^3/4c2 B2c2 B2A2  | \
w:  SAZ *  *  *  Dost  ba ğı  |  nın   | 
e2d2 d2^3/4c2 c2B2 c2B2 A2 | 
w:  bül *  bü *  lü  | 
A8^3/4c2 d2e=f edcd  | e=fed ^3/4c2d2 e4 e2d2 g2 | \
w:  yem   SAZ  |  SAZ *  *  *  Dost  ba ğı  | 
g2 =f2e2 d2^3/4c2 B2c2 B2A2  | 
w:  nın   | 
e2d2 d2^3/4c2 c2B2 c2B2 A2 | A8^3/4c2 d2e=f edcd  | \
w:  bül *  bü *  lü  |  yem   SAZ  | 
e4 ^3/4c2cd d8-d2 | 
w:  *  Ben_ o  *  yâ  | 
d2 ^3/4c2d2 e2d2 c2d6  | e4 =f4 e2d2 ^3/4c4 B2 | \
w:  rın   |  mef tû nu  | 
^3/4c2 B2c2 d2(3c2B2A2{B}A6  | 
w:  yam  *  a man_ a *  *  *  man    | 
e4 ^3/4c2cd d8-d2 | d2 ^3/4c2d2 e2d2 c2d6  | \
w:  *  Ben_ o  *  yâ  |  rın   | 
e4 =f4 e2d2 ^3/4c4 B2 | ^3/4c2 B2c2 d2(3c2B2A2{B}A6  | 
w:  mef tû nu  |  yam  *  a man_ a *  *  *  man    | 
d4 ^3/4c2d2 e4 e2d2 g2 | g2 =f2e2 d2^3/4c2 B2c2 B2A2  | \
w:  SAZ Gö nül  sabr_  |  ey  | 
e2d2 d2^3/4c2 c2B2 c2B2 A2 | 
w:  le  *  sabr_ *  ey  | 
A6 d2^3/4c2 d2e=f edcd  | g=fed ^3/4c2d2 e4 e2d2 g2 | \
w:  le   SAZ  |  *  *  *  *  Mev lâ nın   | 
g2 =f2e2 d2^3/4c2 B2c2 B2A2  | 
w:  mu  | 
e2d2 d2^3/4c2 c2B2 c2B2 A2 | A18  | z4 ^3/4c2d2 e4 e2d2 g2 | \
w:  ra *  dı  *  böy  |  le    |   | 
g2 =f2e2 d2^3/4c2 B2c2 B2A2  | 
w:   | 
e2d2 d2^3/4c2 c2B2 c2B2 A2 | A6 d2^3/4c2 d2e=f edcd  | \
w:   |   | 
e4 ^3/4c2d2 e4 e2d2 g2 | 
w:   | 
g2 =f2e2 d2^3/4c2 B2c2 B2A2  | e2d2 d2^3/4c2 c2B2 c2B2 A2 | \
w:   |   | 
A6 d2de ^3/4ced6  | 
w:   | 
d4 ^3/4c2cd d8-d2 | d2 ^3/4c2d2 e2d2 c2d6  | \
w:  *  El  zan ne  |  der   | 
e4 =f4 e2d2 ^3/4c4 B2 | ^3/4c2 B2c2 d2(3c2B2A2{B}A4cd  | 
w:  ben  de li  |  yem  *  a man_ a *  *  *  man    | 
d4 ^3/4c2cd d8-d2 | d2 ^3/4c2d2 e2d2 c2d6  | \
w:  *  El  zan ne  |  der   | 
e4 =f4 e2d2 ^3/4c4 B2 | ^3/4c2 B2c2 d2(3c2B2A2{B}A4cd  | 
w:  ben  de li  |  yem  *  a man_ a *  *  *  man    | 
e=fed ^3/4c2d2 e4 e2d2 g2 | g2 =f2e2 d2^3/4c2 B2c2 B2A2  | \
w:  SAZ *  *  *  Dost  ba ğı  |  nın   | 
e2d2 d2^3/4c2 c2B2 c2B2 A2 | 
w:  bül *  bü *  lü  | 
A8^3/4c2 d2e=f edcd  | e=fed ^3/4c2d2 e4 e2d2 g2 | \
w:  yem   SAZ  |  SAZ *  *  *  Dost  ba ğı  | 
g2 =f2e2 d2^3/4c2 B2c2 B2A2  | 
w:  nın   | 
e2d2 d2^3/4c2 c2B2 c2B2 A2 | A8^3/4c2 d2e=f edcd  | \
w:  bül *  bü *  lü  |  yem   SAZ  | 
e4 ^3/4c2cd d8-d2 | 
w:  *  Ben_ o  *  yâ  | 
d2 ^3/4c2d2 e2d2 c2d6  | e4 =f4 e2d2 ^3/4c4 B2 | \
w:  rın   |  mef tû nu  | 
^3/4c2 B2c2 d2(3c2B2A2{B}A6  | 
w:  yam  *  a man_ a *  *  *  man    | 
e4 ^3/4c2cd d8-d2 | d2 ^3/4c2d2 e2d2 c2d6  | \
w:  *  Ben_ o  *  yâ  |  rın   | 
e4 =f4 e2d2 ^3/4c4 B2 | ^3/4c2 B2c2 d2(3c2B2A2{B}A6  | 
w:  mef tû nu  |  yam  *  a man_ a *  *  *  man    | 
d4 ^3/4c2d2 e4 e2d2 g2 | g2 =f2e2 d2^3/4c2 B2c2 B2A2  | \
w:  SAZ Gö nül  sabr_  |  ey  | 
e2d2 d2^3/4c2 c2B2 c2B2 A2 | 
w:  le  *  sabr_ *  ey  | 
A6 d2^3/4c2 d2e=f edcd  | g=fed ^3/4c2d2 e4 e2d2 g2 | \
w:  le   SAZ  |  *  *  *  *  Mev lâ nın   | 
g2 =f2e2 d2^3/4c2 B2c2 B2A2  | 
w:  mu  | 
e2d2 d2^3/4c2 c2B2 c2B2 A2 | A18  | |


